Simply-Orange-Circles/scalable/panel/battery-caution.svg

<svg xmlns="http://www.w3.org/2000/svg" width="24" height="24"><path d="M12 1.08c-6.1 0-11 4.84-11 10.87a10.91 10.91 0 0 0 11 10.89c6.1 0 11-4.86 11-10.9A10.91 10.91 0 0 0 12 1.09zm0 2.72a8.18 8.18 0 0 1 8.25 8.16A8.19 8.19 0 0 1 12 20.11a8.18 8.18 0 0 1-8.25-8.16A8.18 8.18 0 0 1 12 3.8zm0 1.65c-.73 0-1.32.58-1.32 1.32v6.55a1.32 1.32 0 0 0 2.64 0V6.76c0-.73-.6-1.32-1.32-1.32zm0 10.47a1.32 1.32 0 0 0-1.32 1.32 1.32 1.32 0 0 0 1.32 1.3 1.32 1.32 0 0 0 1.32-1.31A1.32 1.32 0 0 0 12 15.9z" fill="#ff7f2a"/></svg>

<?xml version="1.0" encoding="UTF-8" standalone="no"?>
<svg
   xmlns:dc="http://purl.org/dc/elements/1.1/"
   xmlns:cc="http://creativecommons.org/ns#"
   xmlns:rdf="http://www.w3.org/1999/02/22-rdf-syntax-ns#"
   xmlns:svg="http://www.w3.org/2000/svg"
   xmlns="http://www.w3.org/2000/svg"
   xmlns:sodipodi="http://sodipodi.sourceforge.net/DTD/sodipodi-0.dtd"
   xmlns:inkscape="http://www.inkscape.org/namespaces/inkscape"
   width="24"
   height="24"
   version="1.1"
   id="svg4"
   sodipodi:docname="battery-caution.svg"
   inkscape:version="0.92.4 (5da689c313, 2019-01-14)">
  <metadata
     id="metadata10">
    <rdf:RDF>
      <cc:Work
         rdf:about="">
        <dc:format>image/svg+xml</dc:format>
        <dc:type
           rdf:resource="http://purl.org/dc/dcmitype/StillImage" />
        <dc:title></dc:title>
      </cc:Work>
    </rdf:RDF>
  </metadata>
  <defs
     id="defs8" />
  <sodipodi:namedview
     pagecolor="#ffffff"
     bordercolor="#666666"
     borderopacity="1"
     objecttolerance="10"
     gridtolerance="10"
     guidetolerance="10"
     inkscape:pageopacity="0"
     inkscape:pageshadow="2"
     inkscape:window-width="1087"
     inkscape:window-height="480"
     id="namedview6"
     showgrid="false"
     inkscape:zoom="9.8333333"
     inkscape:cx="1.0677966"
     inkscape:cy="12"
     inkscape:window-x="0"
     inkscape:window-y="25"
     inkscape:window-maximized="0"
     inkscape:current-layer="svg4" />
  <path
     d="M 12,1.08 C 5.9,1.08 1,5.92 1,11.95 a 10.91,10.91 0 0 0 11,10.89 c 6.1,0 11,-4.86 11,-10.9 A 10.91,10.91 0 0 0 12,1.09 Z M 12,3.8 A 8.18,8.18 0 0 1 20.25,11.96 8.19,8.19 0 0 1 12,20.11 8.18,8.18 0 0 1 3.75,11.95 8.18,8.18 0 0 1 12,3.8 Z m 0,1.65 c -0.73,0 -1.32,0.58 -1.32,1.32 v 6.55 a 1.32,1.32 0 0 0 2.64,0 V 6.76 C 13.32,6.03 12.72,5.44 12,5.44 Z m 0,10.47 A 1.32,1.32 0 0 0 10.68,17.24 1.32,1.32 0 0 0 12,18.54 1.32,1.32 0 0 0 13.32,17.23 1.32,1.32 0 0 0 12,15.9 Z"
     id="path2"
     inkscape:connector-curvature="0"
     style="fill:#ff7f2a" />
</svg>
